img/icons/tw.svg

<svg width="17" height="13" viewBox="0 0 17 13" fill="none" xmlns="http://www.w3.org/2000/svg">
<path d="M16.1842 1.73632C15.6188 1.98733 15.0111 2.15637 14.3734 2.23257C15.0246 1.84262 15.5247 1.2247 15.7597 0.488329C15.1507 0.849472 14.4758 1.11201 13.7574 1.25352C13.183 0.640727 12.3627 0.257812 11.456 0.257812C9.42044 0.257812 7.92465 2.15701 8.3844 4.12857C5.76483 3.99731 3.44174 2.74227 1.88639 0.834745C1.06037 2.25178 1.45801 4.10552 2.8616 5.04424C2.3455 5.02759 1.85885 4.88608 1.43432 4.6498C1.39974 6.11038 2.44667 7.47683 3.96296 7.78098C3.51922 7.90136 3.03321 7.92954 2.53888 7.83477C2.93972 9.08724 4.10383 9.99843 5.48437 10.024C4.1589 11.0633 2.48893 11.5275 0.816406 11.3303C2.21167 12.2248 3.86947 12.7467 5.64957 12.7467C11.5034 12.7467 14.8107 7.80275 14.6109 3.36851C15.2269 2.92348 15.7616 2.36832 16.1842 1.73632Z" fill="white"/>
</svg>

<svg width="17" height="13" fill="none" xmlns="http://www.w3.org/2000/svg"><path d="M16.184 1.736a6.295 6.295 0 01-1.81.497A3.158 3.158 0 0015.76.488a6.317 6.317 0 01-2.003.766 3.156 3.156 0 00-5.373 2.875A8.95 8.95 0 011.886.835a3.157 3.157 0 00.976 4.21 3.14 3.14 0 01-1.428-.395C1.4 6.11 2.447 7.477 3.963 7.78a3.16 3.16 0 01-1.424.054 3.155 3.155 0 002.945 2.189A6.34 6.34 0 01.816 11.33a8.926 8.926 0 004.834 1.417c5.853 0 9.16-4.944 8.96-9.378.617-.446 1.152-1 1.574-1.633z" fill="#fff"/></svg>
